X:1
T: Bonnie Charlie, King William of Orange
C:
R:Reel
Q: 232
K:Am
M:4/4
L:1/8
E2|A2AB c2cd|e2e2 cBcd|e2A2 AB cA|Bc dB G2E2|AG AB cB cd|ed ce g2gf|e2A2 cB AG|A4 [A2C2]E2|
A2AB [c2A2][cA][dB]|[e2A2][e2A2] cB cd|[e2A2]A2 AB cA|[BG][cG][dG] [BG]G2|E2AG ABcB|cd[ec] dc e[g2c2] [gc][fc]|[e2A2]A2 cB AG|A4 [A2C2]z2|
AB AG E2E2|AB AG E2z2|Bc dB G2c2|Bc dB G2cd|[e2c2]ce [d2G2]Bd|[c2F2]Ac [B2E2]GB|[A2E2]AB cB AG|[A2F2][AF][BF] [c2E2]z2|
AB AG E2E2|AB AG E2z2|GF ED FE DC|B,C DB, G,2A,B,|CB, CD ED EG|AG AB c2A2|GF ED ED CB,|A,4 A,2||
